images/logo-htmlacademy.svg

<svg width="115" height="35" viewBox="0 0 115 35" fill="none" xmlns="http://www.w3.org/2000/svg">
<g clip-path="url(#clip0_24_653)">
<path d="M0 13.2568V15.8568H2.5V13.2568H0Z" fill="black"/>
<path d="M11.5999 4.85693C9.9999 4.85693 8.7999 5.55693 7.9999 6.55693H7.8999V0.356934H5.8999V15.8569H7.8999V10.5569C7.8999 8.45693 9.1999 6.95693 11.1999 6.95693C12.9999 6.95693 14.0999 8.35693 14.0999 10.1569V15.8569H16.0999V9.75693C16.1999 6.75693 14.2999 4.85693 11.5999 4.85693Z" fill="black"/>
<path d="M26.5999 5.15703H21.7999V1.45703H19.7999V5.25703H17.8999V7.25703H19.7999V13.257C19.7999 14.957 20.7999 15.957 22.4999 15.957H26.5999V13.957H22.8999C22.1999 13.957 21.7999 13.557 21.7999 12.857V7.15703H26.5999V5.15703Z" fill="black"/>
<path d="M41.1 4.95703C39.5 4.95703 38.2 5.75703 37.6 7.05703H37.5C36.9 5.85703 35.7 4.95703 34.1 4.95703C32.7 4.95703 31.6 5.75703 31 6.75703H30.9V5.15703H29V15.757H31V10.357C31 8.35703 32 6.85703 33.6 6.85703C35.1 6.85703 36 7.85703 36 9.45703V15.757H38V10.157C38 7.75703 39.4 6.85703 40.6 6.85703C42.1 6.85703 43 7.85703 43 9.45703V15.757H45V9.25703C45.1 6.75703 43.6 4.95703 41.1 4.95703Z" fill="black"/>
<path d="M47.8 13.0569C47.8 14.7569 48.8 15.7569 50.6 15.7569H52.6V13.7569H50.9001C50.2001 13.7569 49.8 13.3569 49.8 12.6569V0.356934H47.8V13.0569Z" fill="black"/>
<path d="M28.9001 20.0568C28.0001 18.9568 26.7001 18.2568 25.0001 18.2568C21.9001 18.2568 19.6001 20.5568 19.6001 23.8568C19.6001 27.1568 21.9001 29.4568 25.0001 29.4568C26.8001 29.4568 28.0001 28.6568 28.8001 27.5568H28.9001V29.1568H30.9001V18.5568H28.9001V20.0568ZM25.3001 27.4568C23.1001 27.4568 21.7001 25.8568 21.7001 23.8568C21.7001 21.8568 23.1001 20.2568 25.3001 20.2568C27.5001 20.2568 28.9001 21.8568 28.9001 23.8568C28.9001 25.7568 27.5001 27.4568 25.3001 27.4568Z" fill="black"/>
<path d="M44.2 22.3568C43.7 19.9568 41.5999 18.2568 38.7999 18.2568C35.3999 18.2568 33.2 20.7568 33.2 23.8568C33.2 26.9568 35.3999 29.4568 38.7999 29.4568C41.5999 29.4568 43.7 27.6568 44.2 25.2568H42.0999C41.6999 26.5568 40.3999 27.5568 38.7999 27.5568C36.5999 27.5568 35.2 25.9568 35.2 23.9568C35.2 21.9568 36.5999 20.3568 38.7999 20.3568C40.3999 20.3568 41.5999 21.3568 42.0999 22.5568H44.2V22.3568Z" fill="black"/>
<path d="M55.1 20.0568C54.2 18.9568 52.9001 18.2568 51.2001 18.2568C48.1001 18.2568 45.8 20.5568 45.8 23.8568C45.8 27.1568 48.1001 29.4568 51.2001 29.4568C53.0001 29.4568 54.2 28.6568 55 27.5568H55.1V29.1568H57.1V18.5568H55.1V20.0568ZM51.5 27.4568C49.3 27.4568 47.9001 25.8568 47.9001 23.8568C47.9001 21.8568 49.3 20.2568 51.5 20.2568C53.7 20.2568 55.1 21.8568 55.1 23.8568C55.1 25.7568 53.6 27.4568 51.5 27.4568Z" fill="black"/>
<path d="M68.6999 20.1568C67.7999 19.0568 66.4999 18.2568 64.7999 18.2568C61.6999 18.2568 59.3999 20.5568 59.3999 23.8568C59.3999 27.1568 61.5999 29.4568 64.7999 29.4568C66.4999 29.4568 67.7999 28.6568 68.5999 27.6568H68.6999V29.1568H70.6999V13.7568H68.6999V20.1568ZM65.0999 27.4568C62.8999 27.4568 61.4999 25.8568 61.4999 23.8568C61.4999 21.8568 62.8999 20.2568 65.0999 20.2568C67.2999 20.2568 68.6999 21.8568 68.6999 23.8568C68.5999 25.8568 67.1999 27.4568 65.0999 27.4568Z" fill="black"/>
<path d="M78.3 18.2568C75 18.2568 72.8 20.7568 72.8 23.8568C72.8 26.8568 74.9 29.4568 78.3 29.4568C80.8 29.4568 82.8 28.1568 83.5 25.8568H81.4C80.9 26.8568 79.8 27.4568 78.4 27.4568C76.5 27.4568 75.1 26.1568 75 24.5568H83.8C84 20.9568 81.8 18.2568 78.3 18.2568ZM78.3 20.1568C80 20.1568 81.3 21.1568 81.6 22.7568H75.1C75.4 21.2568 76.6 20.1568 78.3 20.1568Z" fill="black"/>
<path d="M98.2001 18.2568C96.6001 18.2568 95.3001 19.0568 94.6001 20.2568H94.5001C93.9001 19.0568 92.7001 18.2568 91.1001 18.2568C89.7001 18.2568 88.6001 18.9568 88.0001 20.0568V18.5568H86.1001V29.1568H88.1001V23.7568C88.1001 21.7568 89.1001 20.3568 90.7001 20.2568C92.2001 20.2568 93.1001 21.2568 93.1001 22.8568V29.1568H95.1001V23.5568C95.1001 21.1568 96.5001 20.2568 97.7001 20.2568C99.2001 20.2568 100.1 21.2568 100.1 22.8568V29.1568H102.1V22.6568C102.2 20.0568 100.7 18.2568 98.2001 18.2568Z" fill="black"/>
<path d="M109.4 27.357L105.8 18.457H103.6L108.4 30.057C108.1 30.957 107.7 31.257 106.7 31.257H104.2V33.257H106.7C108.5 33.257 109.5 32.457 110.2 30.657L114.9 18.457H112.8L109.4 27.357Z" fill="black"/>
</g>
<defs>
<clipPath id="clip0_24_653">
<rect width="115" height="34" fill="white" transform="translate(0 0.356934)"/>
</clipPath>
</defs>
</svg>

<svg width="115" height="35" viewBox="0 0 115 35" fill="none" xmlns="http://www.w3.org/2000/svg"><g clip-path="url(#a)" fill="#000"><path d="M0 13.257v2.6h2.5v-2.6H0ZM11.6 4.857c-1.6 0-2.8.7-3.6 1.7h-.1v-6.2h-2v15.5h2v-5.3c0-2.1 1.3-3.6 3.3-3.6 1.8 0 2.9 1.4 2.9 3.2v5.7h2v-6.1c.1-3-1.8-4.9-4.5-4.9ZM26.6 5.157h-4.8v-3.7h-2v3.8h-1.9v2h1.9v6c0 1.7 1 2.7 2.7 2.7h4.1v-2h-3.7c-.7 0-1.1-.4-1.1-1.1v-5.7h4.8v-2ZM41.1 4.957c-1.6 0-2.9.8-3.5 2.1h-.1c-.6-1.2-1.8-2.1-3.4-2.1-1.4 0-2.5.8-3.1 1.8h-.1v-1.6H29v10.6h2v-5.4c0-2 1-3.5 2.6-3.5 1.5 0 2.4 1 2.4 2.6v6.3h2v-5.6c0-2.4 1.4-3.3 2.6-3.3 1.5 0 2.4 1 2.4 2.6v6.3h2v-6.5c.1-2.5-1.4-4.3-3.9-4.3ZM47.8 13.057c0 1.7 1 2.7 2.8 2.7h2v-2h-1.7c-.7 0-1.1-.4-1.1-1.1V.357h-2v12.7ZM28.9 20.057c-.9-1.1-2.2-1.8-3.9-1.8-3.1 0-5.4 2.3-5.4 5.6s2.3 5.6 5.4 5.6c1.8 0 3-.8 3.8-1.9h.1v1.6h2v-10.6h-2v1.5Zm-3.6 7.4c-2.2 0-3.6-1.6-3.6-3.6s1.4-3.6 3.6-3.6 3.6 1.6 3.6 3.6c0 1.9-1.4 3.6-3.6 3.6ZM44.2 22.357c-.5-2.4-2.6-4.1-5.4-4.1-3.4 0-5.6 2.5-5.6 5.6 0 3.1 2.2 5.6 5.6 5.6 2.8 0 4.9-1.8 5.4-4.2h-2.1c-.4 1.3-1.7 2.3-3.3 2.3-2.2 0-3.6-1.6-3.6-3.6s1.4-3.6 3.6-3.6c1.6 0 2.8 1 3.3 2.2h2.1v-.2ZM55.1 20.057c-.9-1.1-2.2-1.8-3.9-1.8-3.1 0-5.4 2.3-5.4 5.6s2.3 5.6 5.4 5.6c1.8 0 3-.8 3.8-1.9h.1v1.6h2v-10.6h-2v1.5Zm-3.6 7.4c-2.2 0-3.6-1.6-3.6-3.6s1.4-3.6 3.6-3.6 3.6 1.6 3.6 3.6c0 1.9-1.5 3.6-3.6 3.6ZM68.7 20.157c-.9-1.1-2.2-1.9-3.9-1.9-3.1 0-5.4 2.3-5.4 5.6s2.2 5.6 5.4 5.6c1.7 0 3-.8 3.8-1.8h.1v1.5h2v-15.4h-2v6.4Zm-3.6 7.3c-2.2 0-3.6-1.6-3.6-3.6s1.4-3.6 3.6-3.6 3.6 1.6 3.6 3.6c-.1 2-1.5 3.6-3.6 3.6ZM78.3 18.257c-3.3 0-5.5 2.5-5.5 5.6 0 3 2.1 5.6 5.5 5.6 2.5 0 4.5-1.3 5.2-3.6h-2.1c-.5 1-1.6 1.6-3 1.6-1.9 0-3.3-1.3-3.4-2.9h8.8c.2-3.6-2-6.3-5.5-6.3Zm0 1.9c1.7 0 3 1 3.3 2.6h-6.5c.3-1.5 1.5-2.6 3.2-2.6ZM98.2 18.257c-1.6 0-2.9.8-3.6 2h-.1c-.6-1.2-1.8-2-3.4-2-1.4 0-2.5.7-3.1 1.8v-1.5h-1.9v10.6h2v-5.4c0-2 1-3.4 2.6-3.5 1.5 0 2.4 1 2.4 2.6v6.3h2v-5.6c0-2.4 1.4-3.3 2.6-3.3 1.5 0 2.4 1 2.4 2.6v6.3h2v-6.5c.1-2.6-1.4-4.4-3.9-4.4ZM109.4 27.357l-3.6-8.9h-2.2l4.8 11.6c-.3.9-.7 1.2-1.7 1.2h-2.5v2h2.5c1.8 0 2.8-.8 3.5-2.6l4.7-12.2h-2.1l-3.4 8.9Z"/></g><defs><clipPath id="a"><path fill="#fff" transform="translate(0 .357)" d="M0 0h115v34H0z"/></clipPath></defs></svg>
